Newaita/actions/22/view-close.svg

<svg height="22" viewBox="0 0 22 22" width="22" xmlns="http://www.w3.org/2000/svg"><path d="m1.820312 3.808594c0-1.007813.808594-1.816406 1.816407-1.816406h14.554687c1.007813 0 1.820313.808593 1.820313 1.816406v8.644531h-1.820313v-4.09375h-14.554687v9.09375c0 .503906.40625.910156.910156.910156h7.734375v1.820313h-8.644531c-1.007813 0-1.816407-.8125-1.816407-1.820313zm1.816407.910156v2.730469h14.554687v-2.730469c0-.503906-.40625-.910156-.910156-.910156h-12.734375c-.503906 0-.910156.40625-.910156.910156zm0 0" fill="#424242"/><g fill="#f44336"><path d="m19.878906 19.40625-.644531.644531c-.175781.175781-.464844.175781-.644531 0l-4.5-4.503906c-.179688-.175781-.179688-.464844 0-.644531l.644531-.640625c.175781-.179688.464844-.179688.640625 0l4.503906 4.5c.175782.179687.175782.46875 0 .644531zm0 0"/><path d="m14.734375 20.050781-.644531-.644531c-.179688-.175781-.179688-.464844 0-.644531l4.5-4.5c.179687-.179688.46875-.179688.644531 0l.644531.640625c.175782.179687.175782.46875 0 .644531l-4.503906 4.503906c-.175781.175781-.464844.175781-.640625 0zm0 0"/></g></svg>

<?xml version="1.0" encoding="UTF-8"?>
<svg xmlns="http://www.w3.org/2000/svg" xmlns:xlink="http://www.w3.org/1999/xlink" width="22px" height="22px" viewBox="0 0 22 22" version="1.1">
<g id="surface1">
<path style=" stroke:none;fill-rule:nonzero;fill:rgb(25.882354%,25.882354%,25.882354%);fill-opacity:1;" d="M 1.820312 3.808594 C 1.820312 2.800781 2.628906 1.992188 3.636719 1.992188 L 18.191406 1.992188 C 19.199219 1.992188 20.011719 2.800781 20.011719 3.808594 L 20.011719 12.453125 L 18.191406 12.453125 L 18.191406 8.359375 L 3.636719 8.359375 L 3.636719 17.453125 C 3.636719 17.957031 4.042969 18.363281 4.546875 18.363281 L 12.28125 18.363281 L 12.28125 20.183594 L 3.636719 20.183594 C 2.628906 20.183594 1.820312 19.371094 1.820312 18.363281 Z M 3.636719 4.71875 L 3.636719 7.449219 L 18.191406 7.449219 L 18.191406 4.71875 C 18.191406 4.214844 17.785156 3.808594 17.28125 3.808594 L 4.546875 3.808594 C 4.042969 3.808594 3.636719 4.214844 3.636719 4.71875 Z M 3.636719 4.71875 "/>
<path style=" stroke:none;fill-rule:nonzero;fill:rgb(95.686275%,26.274511%,21.176471%);fill-opacity:1;" d="M 19.878906 19.40625 L 19.234375 20.050781 C 19.058594 20.226562 18.769531 20.226562 18.589844 20.050781 L 14.089844 15.546875 C 13.910156 15.371094 13.910156 15.082031 14.089844 14.902344 L 14.734375 14.261719 C 14.910156 14.082031 15.199219 14.082031 15.375 14.261719 L 19.878906 18.761719 C 20.054688 18.941406 20.054688 19.230469 19.878906 19.40625 Z M 19.878906 19.40625 "/>
<path style=" stroke:none;fill-rule:nonzero;fill:rgb(95.686275%,26.274511%,21.176471%);fill-opacity:1;" d="M 14.734375 20.050781 L 14.089844 19.40625 C 13.910156 19.230469 13.910156 18.941406 14.089844 18.761719 L 18.589844 14.261719 C 18.769531 14.082031 19.058594 14.082031 19.234375 14.261719 L 19.878906 14.902344 C 20.054688 15.082031 20.054688 15.371094 19.878906 15.546875 L 15.375 20.050781 C 15.199219 20.226562 14.910156 20.226562 14.734375 20.050781 Z M 14.734375 20.050781 "/>
</g>
</svg>
